svgs/sharp-regular/file.svg

<svg xmlns="http://www.w3.org/2000/svg" viewBox="0 0 384 512"><!--! Font Awesome Pro 6.6.0 by @fontawesome - https://fontawesome.com License - https://fontawesome.com/license (Commercial License) Copyright 2024 Fonticons, Inc. --><path d="M336 464l0-304-112 0 0-112L48 48l0 416 288 0zM48 0L256 0 384 128l0 336 0 48-48 0L48 512 0 512l0-48L0 48 0 0 48 0z"/></svg>

<svg xmlns="http://www.w3.org/2000/svg" viewBox="0 0 384 512"><!--! Font Awesome Pro 6.5.2 by @fontawesome - https://fontawesome.com License - https://fontawesome.com/license (Commercial License) Copyright 2024 Fonticons, Inc. --><path d="M336 464V160H224V48H48V464H336zM48 0H256L384 128V464v48H336 48 0V464 48 0H48z"/></svg>
